X:23
T:Fieldtown Processional
M:4/4
L:1/4
K:Bmajor
B/2c/2|"B"dcdB|"cm"ccc2|"F7"ed/2e/2ce|"B"dB"F7"B2|"B"d/2e/2f"E"ga|"B"bf"E"ge|"B"dB"F7"cA|"B"B2B|f|"B"b2ba|"E"agg2|"c7"c'3/2d'/2c'b|"F7"aff2|"B"baba|"E"gfgb|"F"af"c7"g^e|"F7"fed|]

